icons/icn_posicion.svg

<svg width="24" xmlns="http://www.w3.org/2000/svg" height="24" id="screenshot-7f4951e7-eba4-8056-8006-5189a78fc70b" viewBox="0 0 24 24" xmlns:xlink="http://www.w3.org/1999/xlink" fill="none" version="1.1"><g id="shape-7f4951e7-eba4-8056-8006-5189a78fc70b"><g class="frame-container-wrapper"><g class="frame-container-blur"><g class="frame-container-shadows"><g fill="none"><g class="fills" id="fills-7f4951e7-eba4-8056-8006-5189a78fc70b"><rect rx="0" ry="0" x="0" y="0" width="24" height="24.000000000000455" transform="matrix(1, 0, 0, 1, 0, 0)" class="frame-background"/></g><g class="frame-children"><g id="shape-7f4951e7-eba4-8056-8006-5189725983f3" width="24" height="24" version="1.1" rx="0" ry="0" style="fill: rgb(0, 0, 0); fill-opacity: 1;"><g id="shape-7f4951e7-eba4-8056-8006-5189725d9d25" style="opacity: 1;"><g class="fills" id="fills-7f4951e7-eba4-8056-8006-5189725d9d25"><path d="M12.020842552185059,1.2834174633026123C11.617278099060059,1.2850043773651123,11.290862083435059,1.6122748851776123,11.290373802185059,2.0158393383026123L11.290373802185059,3.0861518383026123C6.944914817810059,3.4621284008026123,3.4756765365600586,6.934540271759033,3.0970144271850586,11.279511451721191L2.0267019271850586,11.279511451721191C1.617766261100769,11.276703834533691,1.285490870475769,11.608857154846191,1.288420557975769,12.017792701721191C1.289885401725769,12.423554420471191,1.620695948600769,12.750946998596191,2.0267019271850586,12.748261451721191L3.0892019271850586,12.748261451721191C3.4187917709350586,17.143524169921875,6.908782005310059,20.666595458984375,11.290373802185059,21.045135498046875L11.290373802185059,22.011932373046875C11.287444114685059,22.417694091796875,11.615080833435059,22.748626708984375,12.020842552185059,22.750213623046875C12.429533958435059,22.752899169921875,12.761809349060059,22.420745849609375,12.759123802185059,22.011932373046875L12.759123802185059,21.052947998046875C17.186368942260742,20.718109130859375,20.731046676635742,17.175628662109375,21.063810348510742,12.748261451721191L22.024747848510742,12.748261451721191C22.427335739135742,12.746674537658691,22.753507614135742,12.420502662658691,22.755216598510742,12.017792701721191C22.757902145385742,11.611908912658691,22.430509567260742,11.281098365783691,22.024747848510742,11.279511451721191L21.055997848510742,11.279511451721191C20.673673629760742,6.902435779571533,17.149747848510742,3.4109809398651123,12.759123802185059,3.0783393383026123L12.759123802185059,2.0158393383026123C12.758635520935059,1.6092231273651123,12.427336692810059,1.2806098461151123,12.020842552185059,1.2834174633026123ZM12.759123802185059,4.550995349884033C16.354093551635742,4.873016834259033,19.213468551635742,7.698578357696533,19.583341598510742,11.279511451721191L16.688810348510742,11.279511451721191C16.353849411010742,9.370575904846191,14.743254661560059,7.882782459259033,12.759123802185059,7.638885974884033ZM11.290373802185059,4.558929920196533L11.290373802185059,7.687836170196533C9.454436302185059,8.043793678283691,7.995696067810059,9.474091529846191,7.679045677185059,11.279633522033691L4.569670677185059,11.279633522033691C4.935393333435059,7.730926990509033,7.741545677185059,4.922699451446533,11.290373802185059,4.558929920196533ZM12.182951927185059,9.072602272033691C13.922698020935059,9.072602272033691,15.292326927185059,10.402314186096191,15.292326927185059,12.017914772033691C15.292326927185059,13.633515357971191,13.922698020935059,14.955414772033691,12.182951927185059,14.955414772033691C10.443205833435059,14.955414772033691,9.083342552185059,13.633515357971191,9.083342552185059,12.017914772033691C9.083342552185059,10.402314186096191,10.443205833435059,9.072602272033691,12.182951927185059,9.072602272033691ZM4.559905052185059,12.748383522033691L7.677092552185059,12.748383522033691C7.991057395935059,14.556244850158691,9.451750755310059,15.982880592346191,11.290373802185059,16.338226318359375L11.290373802185059,19.580413818359375C7.705168724060059,19.212860107421875,4.878508567810059,16.348480224609375,4.559905052185059,12.748383522033691ZM16.690763473510742,12.748383522033691L19.593107223510742,12.748383522033691C19.270597457885742,16.380950927734375,16.390714645385742,19.262908935546875,12.759123802185059,19.588226318359375L12.759123802185059,16.389007568359375C14.745940208435059,16.145599365234375,16.358488082885742,14.659760475158691,16.690763473510742,12.748383522033691Z" style="display: inline; stroke-linecap: square; stroke-linejoin: round; fill: rgb(0, 0, 0); fill-opacity: 1;"/></g></g></g></g></g></g></g></g></g></svg>

<svg fill="none" viewBox="0 0 24 24"><g class="frame-container-wrapper"><g class="frame-container-blur"><g class="frame-container-shadows"><g class="fills"><rect width="24" height="24" class="frame-background" rx="0" ry="0"/></g><g class="frame-children"><path fill="#000" d="M12.0208 1.2834a.7333.7333 0 0 0-.7304.7324v1.0704c-4.3455.376-7.8147 3.8483-8.1934 8.1933H2.0267a.7331.7331 0 0 0-.7383.7383.7332.7332 0 0 0 .7383.7305h1.0625c.3296 4.3952 3.8196 7.9183 8.2012 8.2968v.9668a.7333.7333 0 0 0 .7304.7383.7336.7336 0 0 0 .7383-.7383v-.959c4.4273-.3348 7.972-3.8773 8.3047-8.3046h.961a.7336.7336 0 0 0 .7304-.7305.7334.7334 0 0 0-.7305-.7383h-.9687c-.3823-4.377-3.9063-7.8685-8.2969-8.2012V2.0158a.7333.7333 0 0 0-.7383-.7324Zm.7383 3.2676c3.595.322 6.4544 3.1476 6.8242 6.7285h-2.8945c-.335-1.909-1.9455-3.3967-3.9297-3.6406Zm-1.4687.008v3.1288c-1.836.356-3.2947 1.7863-3.6114 3.5918H4.5697c.3657-3.5487 3.1718-6.3569 6.7207-6.7207Zm.8926 4.5136c1.7397 0 3.1093 1.3297 3.1093 2.9453s-1.3696 2.9375-3.1093 2.9375c-1.7398 0-3.0997-1.3219-3.0997-2.9375s1.36-2.9453 3.0997-2.9453ZM4.56 12.7484h3.117c.314 1.8078 1.7748 3.2345 3.6134 3.5898v3.2422c-3.5852-.3675-6.4119-3.232-6.7305-6.832Zm12.1308 0h2.9023c-.3225 3.6326-3.2024 6.5145-6.834 6.8398V16.389c1.9868-.2434 3.5994-1.7292 3.9317-3.6406Z" class="fills"/></g></g></g></g></svg>
